X:345
T: KLEINE BLUMEN KLEINE BLAETTER
N: B0404B
O: Europa, Mitteleuropa, Deutschland
R: Liebes - Lied, Liebes - Lust
M: 2/4
L: 1/16
K: C
 | C2B,CD2G,2 | E2DEF2D2 |
GAGFE2D2 | C2D2E3F |
GAGFE2F2 | GAGFE2F2 |
GAGFE2D2 | C2EDC2z2

@@@ Tune index: 2148
